markup/static/img/svg/location.svg

<?xml version="1.0" encoding="UTF-8"?>
<svg width="18px" height="21px" viewBox="0 0 18 21" version="1.1" xmlns="http://www.w3.org/2000/svg" xmlns:xlink="http://www.w3.org/1999/xlink">
    <!-- Generator: Sketch 45.1 (43504) - http://www.bohemiancoding.com/sketch -->
    <title>icon</title>
    <desc>Created with Sketch.</desc>
    <defs></defs>
    <g id="Symbols" stroke="none" stroke-width="1" fill="none" fill-rule="evenodd">
        <g id="Mob/header" transform="translate(-216.000000, -21.000000)" fill-rule="nonzero">
            <g id="header">
                <g id="map" transform="translate(192.000000, 0.000000)">
                    <g id="icon" transform="translate(24.000000, 21.000000)">
                        <path d="M9,10 C9.55228475,10 10,9.55228475 10,9 C10,8.44771525 9.55228475,8 9,8 C8.44771525,8 8,8.44771525 8,9 C8,9.55228475 8.44771525,10 9,10 Z M9,12 C7.34314575,12 6,10.6568542 6,9 C6,7.34314575 7.34314575,6 9,6 C10.6568542,6 12,7.34314575 12,9 C12,10.6568542 10.6568542,12 9,12 Z" id="Oval" fill="#1A1B1C"></path>
                        <path d="M9.26565564,18.2196187 C9.91861613,17.6905073 10.4922221,17.216873 11.0353756,16.7555998 C11.4413682,16.4108105 11.820403,16.08119 12.1734214,15.7651159 C13.1209302,14.9167663 13.8605544,14.1837798 14.3527155,13.5962795 C15.4109508,12.3330474 16,10.7409809 16,9.05172414 C16,5.15460689 12.8634194,2 9,2 C5.13658056,2 2,5.15460689 2,9.05172414 C2,10.7337429 2.58397588,12.3194448 3.63394987,13.5803142 C4.12159887,14.1659112 4.85552296,14.8957357 5.79653104,15.739813 C6.15521048,16.0615458 6.54100013,16.3972911 6.9549253,16.7488036 C7.49944503,17.2112192 8.07433595,17.6857067 8.73063891,18.2172017 C8.81956638,18.289218 8.90814333,18.3607981 8.99972643,18.4346594 C9.09015101,18.3616852 9.17781036,18.2908021 9.26565564,18.2196187 Z M9,21 C7.2,19.5517241 3.74800273,16.8426933 2.0970575,14.860143 C0.788055804,13.2882182 0,11.2625302 0,9.05172414 C0,4.05259494 4.02943725,0 9,0 C13.9705627,0 18,4.05259494 18,9.05172414 C18,11.272139 17.205079,13.3058232 15.885845,14.8806135 C14.2349038,16.8513677 10.8,19.5517241 9,21 Z" id="pin" fill="#000000"></path>
                    </g>
                </g>
            </g>
        </g>
    </g>
</svg>

<svg xmlns="http://www.w3.org/2000/svg" viewBox="0 0 18 21"><title>location</title><path d="M9,10A1,1,0,1,0,8,9,1,1,0,0,0,9,10Zm0,2a3,3,0,1,1,3-3A3,3,0,0,1,9,12Z"/><path d="M9.27,18.22c.65-.53,1.23-1,1.77-1.46l1.14-1a22.79,22.79,0,0,0,2.18-2.17A7,7,0,1,0,2,9.05a7,7,0,0,0,1.63,4.53A22.33,22.33,0,0,0,5.8,15.74l1.16,1c.54.46,1.12.94,1.78,1.47l.27.22ZM9,21a57.17,57.17,0,0,1-6.9-6.14A9,9,0,1,1,18,9.05a9,9,0,0,1-2.11,5.83A57.85,57.85,0,0,1,9,21Z"/></svg>
